X:223
%%etbk:tnset id:69,pos:1,rep:3x,ant:
%%etbk:wsite http://www.thesession.org/tunes/display/1359
%%etbk:pldat 2015-01-24T14:01,2014-12-09T17:07,2014-09-25T18:35,2014-08-02T16:10,2014-07-30T18:17,2014-05-02T16:49,2014-04-08T18:19,2014-03-23T15:51,2014-02-11T17:49,2014-02-10T18:29,2013-11-25T19:46,2013-11-17T15:31,2013-10-08T15:17,2013-05-22T15:33,2013-05-21T15:10,2013-05-05T13:54,2013-04-30T17:51
T: Old Hag You Have Killed Me
Z: Piano Box Version by Martin Fleischmann
H: Created 2013-02-19 /  Last Modified 2013-02-19
M: 6/8
L: 1/8
R: jig
K: Dmix
!2!F!1!DD !4!c!2!AA|!4!d!5!e!4!d !3!c!2!A!1!G|!2!A3 ABG|ABA !2!A2!1!G|
!2!FDD cAA|ded !3!c!2!A!1!F|!1!G3 GcA|1 GAG G2!1!G:|2 GAG G2!2!e||
|:!3!f3 gfg|!5!a!3!f!2!d !1!c!2!A!1!G|!2!A3 ABG|ABA !1!A2!2!e|
!3!f3 gfg|!5!a!3!f!1!d !3!c!1!A!2!F|!1!G3 GcA|1 GAG G2e:|2 GAG G2G||


